material/.icons/material/table-arrow-down.svg

<svg xmlns="http://www.w3.org/2000/svg" viewBox="0 0 24 24"><path d="M4 3h14a2 2 0 012 2v7.08a6.01 6.01 0 00-4.32.92H12v4h1.08c-.11.68-.11 1.35 0 2H4a2 2 0 01-2-2V5c0-1.1.9-2 2-2m0 4v4h6V7H4m8 0v4h6V7h-6m-8 6v4h6v-4H4m11.94 5.5h2v-4h2v4h2l-3 3-3-3"/></svg>

<?xml version="1.0" encoding="UTF-8"?><!DOCTYPE svg PUBLIC "-//W3C//DTD SVG 1.1//EN" "http://www.w3.org/Graphics/SVG/1.1/DTD/svg11.dtd"><svg xmlns="http://www.w3.org/2000/svg" xmlns:xlink="http://www.w3.org/1999/xlink" version="1.1" id="mdi-table-arrow-down" width="24" height="24" viewBox="0 0 24 24"><path d="M4 3H18C19.11 3 20 3.9 20 5V12.08C18.45 11.82 16.92 12.18 15.68 13H12V17H13.08C12.97 17.68 12.97 18.35 13.08 19H4C2.9 19 2 18.11 2 17V5C2 3.9 2.9 3 4 3M4 7V11H10V7H4M12 7V11H18V7H12M4 13V17H10V13H4M15.94 18.5H17.94V14.5H19.94V18.5H21.94L18.94 21.5L15.94 18.5" /></svg>
